Sources/FrostedUI/Resources/Icons.xcassets/microphoneOff16.imageset/microphone-off-16.svg

<svg width="16" height="16" viewBox="0 0 16 16" fill="none" xmlns="http://www.w3.org/2000/svg" data-fui-icon="true">
  <path
    d="M1.21997 1.21973C1.51287 0.926946 1.98766 0.926871 2.28052 1.21973L14.7805 13.7197C15.0733 14.0126 15.0733 14.4874 14.7805 14.7803C14.4877 15.0731 14.0129 15.0731 13.72 14.7803L11.7702 12.8305C11.6873 12.7476 11.558 12.7339 11.4573 12.7941C10.7102 13.2411 9.87029 13.5489 8.97233 13.6787C8.84621 13.6969 8.75024 13.8035 8.75024 13.9309V14.25C8.75024 14.3881 8.86217 14.5 9.00024 14.5H10.2502C10.6644 14.5001 11.0002 14.8359 11.0002 15.25C11.0002 15.6641 10.6644 15.9999 10.2502 16H5.75024C5.33603 16 5.00024 15.6642 5.00024 15.25C5.00024 14.8358 5.33603 14.5 5.75024 14.5H7.00024C7.13832 14.5 7.25024 14.3881 7.25024 14.25V13.9309C7.25024 13.8035 7.15401 13.6969 7.02788 13.6787C3.76077 13.2073 1.25024 10.3977 1.25024 7C1.25024 6.58579 1.58603 6.25 2.00024 6.25C2.41435 6.25012 2.75024 6.58586 2.75024 7C2.75024 9.8995 5.10075 12.25 8.00024 12.25C8.80203 12.25 9.56107 12.0692 10.2403 11.7472C10.3904 11.676 10.4183 11.4786 10.3008 11.3611L9.72366 10.784C9.65078 10.7111 9.54091 10.6911 9.44488 10.7285C8.99691 10.9031 8.51014 11 8.00024 11C5.79111 11 4.00024 9.20914 4.00024 7V5.1641C4.00024 5.0978 3.9739 5.03421 3.92702 4.98732L1.21997 2.28027C0.927078 1.98738 0.927078 1.51262 1.21997 1.21973ZM14.0002 6.25C14.4144 6.25012 14.7502 6.58586 14.7502 7C14.7502 8.19282 14.4406 9.31313 13.8976 10.2853C13.819 10.4258 13.6286 10.4477 13.5148 10.3338L12.7696 9.58874C12.692 9.51105 12.6746 9.39202 12.7227 9.29324C13.06 8.6003 13.2502 7.82247 13.2502 7C13.2502 6.58579 13.586 6.25 14.0002 6.25ZM5.50024 7C5.50024 8.38071 6.61953 9.5 8.00024 9.5C8.16915 9.49998 8.236 9.2963 8.11656 9.17687L5.81098 6.87129C5.69631 6.75662 5.50024 6.83783 5.50024 7ZM8.00024 1C10.2093 1.00012 12.0002 2.79094 12.0002 5V7C12.0002 7.40559 11.9387 7.79664 11.8258 8.16532C11.7736 8.33598 11.5603 8.37938 11.4341 8.25318L10.5666 7.38568C10.5124 7.33146 10.4868 7.25541 10.4928 7.17897C10.4975 7.11987 10.5002 7.06022 10.5002 7V5C10.5002 3.61936 9.38085 2.50012 8.00024 2.5C7.44134 2.5 6.92681 2.68529 6.51088 2.9957C6.4042 3.07533 6.25353 3.07262 6.1594 2.97849L5.4464 2.2655C5.34657 2.16566 5.34871 2.00238 5.45764 1.91256C6.14882 1.34264 7.03448 1 8.00024 1Z"
    fill="currentColor"
  />
</svg>

<svg xmlns="http://www.w3.org/2000/svg" width="16" height="16" fill="none" data-fui-icon="true" viewBox="0 0 16 16"><path fill="currentColor" d="M1.22 1.22a.75.75 0 0 1 1.06 0l12.5 12.5a.75.75 0 0 1-1.06 1.06l-1.95-1.95a.256.256 0 0 0-.313-.036 6.7 6.7 0 0 1-2.485.885.26.26 0 0 0-.222.252v.319c0 .138.112.25.25.25h1.25a.75.75 0 0 1 0 1.5h-4.5a.75.75 0 0 1 0-1.5H7a.25.25 0 0 0 .25-.25v-.32a.26.26 0 0 0-.222-.251A6.75 6.75 0 0 1 1.25 7a.75.75 0 0 1 1.5 0 5.25 5.25 0 0 0 7.49 4.747.238.238 0 0 0 .06-.386l-.576-.577a.26.26 0 0 0-.28-.056A4 4 0 0 1 4 7V5.165a.25.25 0 0 0-.072-.177L1.22 2.28a.75.75 0 0 1 0-1.06M14 6.25a.75.75 0 0 1 .75.75c0 1.193-.31 2.313-.852 3.285a.24.24 0 0 1-.383.049l-.745-.745a.26.26 0 0 1-.047-.296c.337-.693.527-1.47.527-2.293a.75.75 0 0 1 .75-.75M5.5 7A2.5 2.5 0 0 0 8 9.5c.17 0 .236-.204.117-.323L5.81 6.87a.182.182 0 0 0-.31.129M8 1a4 4 0 0 1 4 4v2c0 .406-.061.797-.174 1.165-.052.171-.266.214-.392.088l-.867-.867a.26.26 0 0 1-.074-.207q.007-.09.007-.179V5A2.5 2.5 0 0 0 8 2.5a2.48 2.48 0 0 0-1.49.496.27.27 0 0 1-.35-.018l-.714-.713a.24.24 0 0 1 .012-.352A3.98 3.98 0 0 1 8 1"/></svg>
